src/resources/icons-ec/src/all/generic-lang.svg

<?xml version="1.0" encoding="UTF-8"?>
<svg width="48px" height="48px" viewBox="0 0 48 48" version="1.1" xmlns="http://www.w3.org/2000/svg" xmlns:xlink="http://www.w3.org/1999/xlink">
    <title>EC/Icons/General/2XL_48x48px/Icon-Generic-Lang</title>
    <defs>
        <path d="M33.952,24.6574545 C34.5585455,23.3512727 34.9309091,21.952 35.024,20.4596364 L30.8727273,20.4596364 C30.8261818,21.9985455 30.5934545,23.3978182 30.2661818,24.6574545 L33.952,24.6574545 Z M35.072,18.7810909 C34.9789091,17.2887273 34.6050909,15.8894545 34,14.5832727 L30.2690909,14.5832727 C30.5949091,15.8429091 30.8290909,17.2421818 30.9221818,18.7810909 L35.072,18.7810909 Z M24.2036364,26.336 L24.2036364,31.1389091 C24.9498182,30.5789091 26.6749091,29.0865455 27.888,26.336 L24.2036364,26.336 Z M29.6610909,26.336 C28.9149091,28.2007273 27.936,29.6930909 27.0487273,30.72 C29.4734545,29.8807273 31.5258182,28.3883636 32.9716364,26.336 L29.6610909,26.336 Z M33.0181818,12.9047273 C31.6189091,10.8523636 29.5665455,9.31345455 27.1883636,8.47418182 C28.0276364,9.54618182 29.0065455,10.992 29.7527273,12.9047273 L33.0181818,12.9047273 Z M28.5410909,14.5832727 L24.2036364,14.5832727 L24.2036364,18.7810909 L29.2407273,18.7810909 C29.1476364,17.1956364 28.9149091,15.7963636 28.5410909,14.5832727 Z M24.2036364,20.4596364 L24.2036364,24.6574545 L28.5410909,24.6574545 C28.9134545,23.4443636 29.1476364,22.0450909 29.1941818,20.4596364 L24.2036364,20.4596364 Z M27.888,12.8581818 C27.5156364,11.8327273 26.9556364,10.9934545 26.4887273,10.2938182 C25.7890909,9.36145455 25.0894545,8.70836364 24.576,8.288 C24.4829091,8.14836364 24.3432727,8.10181818 24.2036364,8.00872727 L24.2036364,12.8596364 L27.888,12.8596364 L27.888,12.8581818 Z M18.8407273,12.8581818 L22.5716364,12.8581818 L22.5716364,8.05527273 C21.7789091,8.61527273 20.0538182,10.1541818 18.8407273,12.8581818 Z M17.0676364,12.8581818 C17.7672727,10.9934545 18.7927273,9.49963636 19.68,8.47418182 C17.2552727,9.26690909 15.2029091,10.8523636 13.7570909,12.8581818 L17.0676364,12.8581818 Z M15.8094545,20.4130909 L11.6581818,20.4130909 C11.7512727,21.9054545 12.1250909,23.3512727 12.7301818,24.6109091 L16.4145455,24.6109091 C16.0887273,23.3512727 15.9010909,21.9985455 15.808,20.4130909 L15.8094545,20.4130909 Z M16.4625455,14.5367273 L12.7781818,14.5367273 C12.1716364,15.8429091 11.7992727,17.2421818 11.6581818,18.7345455 L15.856,18.7345455 C15.9490909,17.1956364 16.1352727,15.7963636 16.4625455,14.5367273 Z M2,32 C2,34.3830151 3.96021303,36 6,36 L18,36 L34,46 L34,36 L42,36 C44.1878371,36 46,34.2250264 46,32 L46,6 C46,3.8916156 44.0954424,2 42,2 L6.18181818,2 C4.07513426,2 2,4.07343378 2,6.18181818 L2,32 Z M9.97963636,19.5738182 C9.97963636,12.1585455 15.9956364,6.14254545 23.4109091,6.18909091 C30.8261818,6.18909091 36.7956364,12.2050909 36.7490909,19.6203636 C36.7490909,27.0356364 30.7330909,33.0516364 23.3178182,33.0050909 C15.9025455,33.0050909 9.93309091,26.9890909 9.97963636,19.5738182 Z M13.712,26.2894545 C15.1578182,28.3418182 17.2101818,29.8807273 19.5883636,30.72 C18.7025455,29.648 17.7221818,28.2021818 17.024,26.2894545 L13.712,26.2894545 Z M18.2341818,24.6109091 L22.5250909,24.6109091 L22.5250909,20.4130909 L17.5345455,20.4130909 C17.5810909,21.9985455 17.8138182,23.3978182 18.2341818,24.6109091 Z M22.5265455,18.7345455 L22.5265455,14.5367273 L18.1890909,14.5367273 C17.8152727,15.7498182 17.6290909,17.1490909 17.536,18.7345455 L22.5265455,18.7345455 Z M20.24,28.8538182 C20.9396364,29.7396364 21.6392727,30.4392727 22.1527273,30.8596364 C22.2458182,30.9992727 22.3854545,31.0923636 22.4785455,31.1389091 L22.4785455,26.336 L18.7941818,26.336 C19.2145455,27.3149091 19.7730909,28.1541818 20.24,28.8538182 Z" id="path-1"></path>
    </defs>
    <g id="EC/Icons/General/2XL_48x48px/Icon-Generic-Lang" stroke="none" stroke-width="1">
        <mask id="mask-2">
            <use xlink:href="#path-1"></use>
        </mask>
        <use id="Mask" xlink:href="#path-1"></use>
    </g>
</svg>

<?xml version="1.0" encoding="UTF-8" ?>
<svg xmlns="http://www.w3.org/2000/svg" viewBox="0 0 48 48"><defs><style
    >.cls-1{fill:none;}.cls-2{fill-rule:evenodd;}</style></defs><g
    id="transparant_bg"
  ><rect class="cls-1" width="48" height="48" /></g><g id="Layer_1"><path
      class="cls-2"
      d="M33.95,24.66c.61-1.31,.98-2.71,1.07-4.2h-4.15c-.05,1.54-.28,2.94-.61,4.2h3.69Zm1.12-5.88c-.09-1.49-.47-2.89-1.07-4.2h-3.73c.33,1.26,.56,2.66,.65,4.2h4.15Zm-10.87,7.55v4.8c.75-.56,2.47-2.05,3.68-4.8h-3.68Zm5.46,0c-.75,1.86-1.73,3.36-2.61,4.38,2.42-.84,4.48-2.33,5.92-4.38h-3.31Zm3.36-13.43c-1.4-2.05-3.45-3.59-5.83-4.43,.84,1.07,1.82,2.52,2.56,4.43h3.27Zm-4.48,1.68h-4.34v4.2h5.04c-.09-1.59-.33-2.98-.7-4.2Zm-4.34,5.88v4.2h4.34c.37-1.21,.61-2.61,.65-4.2h-4.99Zm3.68-7.6c-.37-1.03-.93-1.86-1.4-2.56-.7-.93-1.4-1.59-1.91-2.01-.09-.14-.23-.19-.37-.28v4.85h3.68Zm-9.05,0h3.73v-4.8c-.79,.56-2.52,2.1-3.73,4.8Zm-1.77,0c.7-1.86,1.73-3.36,2.61-4.38-2.42,.79-4.48,2.38-5.92,4.38h3.31Zm-1.26,7.55h-4.15c.09,1.49,.47,2.94,1.07,4.2h3.68c-.33-1.26-.51-2.61-.61-4.2h0Zm.65-5.88h-3.68c-.61,1.31-.98,2.71-1.12,4.2h4.2c.09-1.54,.28-2.94,.61-4.2ZM2,32c0,2.38,1.96,4,4,4h12l16,10v-10h8c2.19,0,4-1.78,4-4V6c0-2.11-1.9-4-4-4H6.18c-2.11,0-4.18,2.07-4.18,4.18v25.82Zm7.98-12.43c0-7.42,6.02-13.43,13.43-13.38,7.42,0,13.38,6.02,13.34,13.43,0,7.42-6.02,13.43-13.43,13.38-7.42,0-13.38-6.02-13.34-13.43Zm3.73,6.72c1.45,2.05,3.5,3.59,5.88,4.43-.89-1.07-1.87-2.52-2.56-4.43h-3.31Zm4.52-1.68h4.29v-4.2h-4.99c.05,1.59,.28,2.98,.7,4.2Zm4.29-5.88v-4.2h-4.34c-.37,1.21-.56,2.61-.65,4.2h4.99Zm-2.29,10.12c.7,.89,1.4,1.59,1.91,2.01,.09,.14,.23,.23,.33,.28v-4.8h-3.68c.42,.98,.98,1.82,1.45,2.52Z"
    /></g></svg>
